src/cmd/lc_numberingstart.svg

<svg viewBox="0 0 24 24" xmlns="http://www.w3.org/2000/svg"><path d="m4 4v1h1v2h-1v1h5v-1h-1v-2h1v-1zm7 0v1h9v-1zm-5 1h1v2h-1zm5 1v1h6v-1zm0 4v1h9v-1zm0 2v1h2v-1zm4.875 0v1h4.125v-1zm-4.875 4v1h9v-1zm0 2v1h6v-1zm7 1v1h2v-1z" fill="#232629"/><path d="m5 10v1h1v2h-1v1h3v-1h-1v-2h1v-1z" fill="#762572"/></svg>

<?xml version="1.0" encoding="UTF-8" standalone="no"?>
<svg
   xmlns:dc="http://purl.org/dc/elements/1.1/"
   xmlns:cc="http://creativecommons.org/ns#"
   xmlns:rdf="http://www.w3.org/1999/02/22-rdf-syntax-ns#"
   xmlns:svg="http://www.w3.org/2000/svg"
   xmlns="http://www.w3.org/2000/svg"
   xmlns:sodipodi="http://sodipodi.sourceforge.net/DTD/sodipodi-0.dtd"
   xmlns:inkscape="http://www.inkscape.org/namespaces/inkscape"
   viewBox="0 0 24 24"
   version="1.1"
   id="svg6"
   sodipodi:docname="lc_numberingstart.svg"
   inkscape:version="0.92.4 (5da689c313, 2019-01-14)">
  <metadata
     id="metadata12">
    <rdf:RDF>
      <cc:Work
         rdf:about="">
        <dc:format>image/svg+xml</dc:format>
        <dc:type
           rdf:resource="http://purl.org/dc/dcmitype/StillImage" />
      </cc:Work>
    </rdf:RDF>
  </metadata>
  <defs
     id="defs10" />
  <sodipodi:namedview
     pagecolor="#ffffff"
     bordercolor="#666666"
     borderopacity="1"
     objecttolerance="10"
     gridtolerance="10"
     guidetolerance="10"
     inkscape:pageopacity="0"
     inkscape:pageshadow="2"
     inkscape:window-width="1920"
     inkscape:window-height="1011"
     id="namedview8"
     showgrid="true"
     inkscape:zoom="27.812867"
     inkscape:cx="13.185775"
     inkscape:cy="12.367437"
     inkscape:window-x="0"
     inkscape:window-y="32"
     inkscape:window-maximized="1"
     inkscape:current-layer="svg6">
    <inkscape:grid
       type="xygrid"
       id="grid822" />
  </sodipodi:namedview>
  <path
     d="M 4,4 V 5 H 5 V 7 H 4 V 8 H 9 V 7 H 8 V 5 H 9 V 4 Z m 7,0 v 1 h 9 V 4 Z M 6,5 H 7 V 7 H 6 Z m 5,1 v 1 h 9 V 6 Z m 0,4 v 1 h 9 v -1 z m 0,2 v 1 h 9 v -1 z m 0,4 v 1 h 9 v -1 z m 0,2 v 1 h 9 v -1 z"
     id="path2"
     inkscape:connector-curvature="0"
     style="fill:#232629"
     sodipodi:nodetypes="ccccccccccccccccccccccccccccccccccccccccccccsccc" />
  <path
     d="m5 10v1h1v2h-1v1h3v-1h-1v-2h1v-1z"
     fill="#762572"
     id="path4" />
</svg>
